svg/fluentui-system-icons/ic_fluent_folder_globe_20_regular.svg

<svg width="20" height="20" viewBox="0 0 20 20" fill="none" xmlns="http://www.w3.org/2000/svg">
<path d="M4.5 3C3.11929 3 2 4.11929 2 5.5V14.5C2 15.8807 3.11929 17 4.5 17H9.59971C9.43777 16.6832 9.30564 16.3486 9.20703 16H4.5C3.67157 16 3 15.3284 3 14.5V7.5H7.07143C7.48194 7.5 7.87452 7.33176 8.15763 7.03449L9.61907 5.5H15.5C16.3284 5.5 17 6.17157 17 7V9.59971C17.3578 9.78261 17.6929 10.0035 18 10.2572V7C18 5.61929 16.8807 4.5 15.5 4.5H9.66667L8.06667 3.3C7.80702 3.10527 7.49122 3 7.16667 3H4.5ZM3 5.5C3 4.67157 3.67157 4 4.5 4H7.16667C7.27485 4 7.38012 4.03509 7.46667 4.1L8.69446 5.02084L7.4335 6.34483C7.33913 6.44392 7.20827 6.5 7.07143 6.5H3V5.5ZM13.0102 14C13.0568 12.8717 13.2592 11.8769 13.5499 11.1502C13.7169 10.7326 13.9033 10.4283 14.0847 10.2365C14.265 10.0457 14.4055 10 14.4999 10C14.5942 10 14.7347 10.0457 14.9151 10.2365C15.0965 10.4283 15.2828 10.7326 15.4499 11.1502C15.7405 11.8769 15.9429 12.8717 15.9896 14H13.0102ZM12.6214 10.7788C12.6854 10.6189 12.7547 10.4654 12.8294 10.3202C11.3191 10.9244 10.2127 12.3234 10.0273 14H12.0094C12.0565 12.7664 12.2766 11.6409 12.6214 10.7788ZM16.3783 10.7788C16.3144 10.6189 16.2451 10.4654 16.1703 10.3202C17.6806 10.9244 18.7871 12.3234 18.9724 14H16.9904C16.9433 12.7664 16.7232 11.6409 16.3783 10.7788ZM16.9904 15H18.9724C18.7871 16.6766 17.6806 18.0756 16.1703 18.6798C16.2451 18.5346 16.3144 18.3811 16.3783 18.2212C16.7232 17.3591 16.9433 16.2336 16.9904 15ZM14.9151 18.7635C14.7347 18.9543 14.5942 19 14.4999 19C14.4055 19 14.265 18.9543 14.0847 18.7635C13.9033 18.5717 13.7169 18.2674 13.5499 17.8498C13.2592 17.1231 13.0568 16.1283 13.0102 15H15.9896C15.9429 16.1283 15.7405 17.1231 15.4499 17.8498C15.2828 18.2674 15.0965 18.5717 14.9151 18.7635ZM10.0273 15C10.2127 16.6766 11.3191 18.0756 12.8294 18.6798C12.7547 18.5346 12.6854 18.3811 12.6214 18.2212C12.2766 17.3591 12.0565 16.2336 12.0094 15H10.0273Z" fill="#212121"/>
</svg>

<svg xmlns="http://www.w3.org/2000/svg" width="20" height="20"><path d="M4.5 3A2.5 2.5 0 0 0 2 5.5v9A2.5 2.5 0 0 0 4.5 17h5.1a5.465 5.465 0 0 1-.393-1H4.5A1.5 1.5 0 0 1 3 14.5v-7h4.071a1.5 1.5 0 0 0 1.087-.466L9.619 5.5H15.5A1.5 1.5 0 0 1 17 7v2.6c.358.183.693.404 1 .657V7a2.5 2.5 0 0 0-2.5-2.5H9.667l-1.6-1.2a1.5 1.5 0 0 0-.9-.3H4.5ZM3 5.5A1.5 1.5 0 0 1 4.5 4h2.667a.5.5 0 0 1 .3.1l1.227.92-1.26 1.325a.5.5 0 0 1-.363.155H3v-1ZM13.01 14c.047-1.128.25-2.123.54-2.85.167-.417.353-.722.535-.914.18-.19.32-.236.415-.236.094 0 .235.046.415.236.182.192.368.497.535.914.29.727.493 1.722.54 2.85h-2.98Zm-.389-3.221c.064-.16.134-.314.208-.459A4.505 4.505 0 0 0 10.027 14h1.982c.047-1.234.268-2.36.612-3.221Zm3.757 0a5.285 5.285 0 0 0-.208-.459A4.504 4.504 0 0 1 18.972 14H16.99c-.047-1.234-.267-2.36-.612-3.221ZM16.99 15h1.982a4.504 4.504 0 0 1-2.802 3.68c.075-.145.144-.299.208-.459.345-.862.565-1.987.612-3.221Zm-2.075 3.764c-.18.19-.32.236-.415.236-.095 0-.235-.046-.415-.236-.182-.192-.368-.497-.535-.914-.29-.727-.493-1.722-.54-2.85h2.98c-.047 1.128-.25 2.123-.54 2.85-.167.417-.353.722-.535.913ZM10.027 15a4.505 4.505 0 0 0 2.802 3.68 5.346 5.346 0 0 1-.208-.459c-.344-.862-.565-1.987-.612-3.221h-1.982Z"/></svg>
